X:1
T:O Friend Without Jesus
T:O Friend Without Jesus
T:Daniel Brink Towner
T:Roscoe Gilmore Stott, 1908
T:Public Domain Courtesy of the Cyber Hymnal™
T:Public Domain Courtesy of the Cyber Hymnal™
C:Daniel Brink Towner
Z:Public Domain
Z:Courtesy of the Cyber Hymnal™
%%score ( 1 2 ) ( 3 4 )
L:1/8
Q:1/4=95
M:4/4
K:Bb
V:1 treble 
V:2 treble 
V:3 bass 
V:4 bass 
V:1
 [B,D]2 [B,D]>[CE] [DF] [DB]2 [DF] | [EG]2 [EA]>[EB] [DF]3 B | (z2 z) c x6 | (z2 z2) x6 | %4
w: 1.~I have a Sav- ior who’s|plead- ing a- bove; Have|you?||
w: 2.~I have a shep- herd who|leads all the way; Have|you?||
w: 3.~I have a Fa- ther who|hears when I call; Have|you?||
w: 4.~Who could re- ject Him, my|Sav- ior and king! Will|you?||
 [B,D]2 [B,D]>[CE] [DF] [DB]2 [DF] | [EG]2 [EA]>[EB] [DF]3 [DF] | %6
w: Have you? I have a Sav-|ior who keeps by His|
w: Have you? I have a shep-|herd who seeks when I|
w: Have you? I have a Fa-|ther who warns ere I|
w: Will you? I have be- lieved|Him; His love makes me|
 [EG]2 [FA][GB] [DF] !fermata![DB]2 [Ec] | [DB]6 z ||"^Refrain" [DB] | %9
w: love; O friend with- out Je-|sus,|have|
w: stray; O friend with- out Je-|sus,|have|
w: fall; O friend with- out Je-|sus,|have|
w: sing; O friend, I re- ceived|Him;|will|
 [CA]2 [CA]>[DB] [Ec]2 [EA]>[EF] | [DB]2 [EB]>[Ec] [DB]3 [FA] | [EG]2 [EG]>[EG] [=EG] [Ec]2 [EB] | %12
w: you? * * * * *|||
w: you? My dear lov- ing Sav-|ior, my keep- er, my|king; My bless- èd Re- deem-|
w: you? * * * * *|||
w: you? * * * * *|||
 [FA]2 [FB]>[FB] !fermata![Fc]3 [EF] | [DB]2 [DB]>[Ec] [Fd]2 [Ec]>[DB] | %14
w: ||
w: er, Thy prais- es I|sing; Yes, I have a mas-|
w: ||
w: ||
 ([EG][GB])[FA][EG] [DF]3 [DF] | [EG]2 [FA][GB] [DF] !fermata![DB]2 [Ec] | [DB]6 z2 |] %17
w: |||
w: ter * so gen- tle and|true; O friend with- out Je-|sus,|
w: |||
w: |||
V:2
 x8 | x8 | (c6 E2 E2) | (B6 E2 D2) | x8 | x8 | x8 | x7 || x | x8 | x8 | x8 | x8 | x8 | x8 | x8 | %16
 x8 |] %17
V:3
 [B,,F,]2 [B,,F,]>[B,,F,] [B,,F,] [B,,F,]2 [B,,B,] | [E,B,]2 [E,B,]>[G,B,] B,3 z | %2
 z2 [F,C]2 [F,C]2 z2 x2 | z2 [B,,G,]2 [B,,F,]2 z2 x2 | %4
 [B,,F,]2 [B,,F,]>[B,,F,] [B,,F,] [B,,F,]2 [B,,B,] | [E,B,]2 [E,B,]>[G,B,] B,3 [B,,B,] | %6
 [E,B,]2 [E,B,][E,B,] [F,B,] !fermata!F,2 F, | [B,,F,]6 z || [B,,F,] | %9
 F,2 F,>F, [F,A,]2 [F,C]>[F,A,] | (B,F,) [B,,G,]>[B,,G,] [B,,F,]3 [D,B,] | %11
 [E,B,]2 [E,B,]>[E,B,] [C,C] [C,G,]2 [C,C] | [F,C]2 [F,D]>[F,D] [F,E]3 [F,A,] | %13
 [B,,B,]2 [B,,B,]>[B,,B,] [B,,B,]2 [B,,F,]>[B,,F,] | E,2 E,[E,G,] [B,,B,]3 [B,,B,] | %15
 [E,B,]2 [E,B,][E,B,] [F,B,] F,2 F, | [B,,F,]6 z2 |] %17
V:4
 x8 | x4 B,3 x | x10 | x10 | x8 | x4 B,3 x | x7 F, | x7 || x | F,2 F,>F, x4 | B,,2 x6 | x8 | x8 | %13
 x8 | E,2 E, x5 | x5 F,2 F, | x8 |] %17

